src/next/cmd/sc_normalmultipanegui.svg

<svg height="16" viewBox="0 0 4.2333333 4.2333335" width="16" xmlns="http://www.w3.org/2000/svg" xmlns:xlink="http://www.w3.org/1999/xlink"><linearGradient id="a" gradientTransform="matrix(-.84615404 0 0 -.80489557 31.261552 507.595)" gradientUnits="userSpaceOnUse" x1="0" x2="31.942419" y1="294.88333" y2="274.79138"><stop offset="0" stop-color="#cccdcf"/><stop offset=".11366145" stop-color="#e0e0e1"/><stop offset=".20296694" stop-color="#f2f2f2"/><stop offset=".21468808" stop-color="#fafafa"/><stop offset=".21468808" stop-color="#fff"/><stop offset=".5313" stop-color="#fafafa"/><stop offset=".8449" stop-color="#ebecec"/><stop offset="1" stop-color="#e1e2e3"/></linearGradient><filter id="b" color-interpolation-filters="sRGB" height="1.0264" width="1.022" x="-.011" y="-.0132"><feGaussianBlur stdDeviation=".1200918"/></filter><filter id="c" color-interpolation-filters="sRGB" height="1.132" width="1.11" x="-.055" y="-.066"><feGaussianBlur stdDeviation=".600459"/></filter><filter id="d" color-interpolation-filters="sRGB" height="1.0528" width="1.044" x="-.022" y="-.0264"><feGaussianBlur stdDeviation=".2401836"/></filter><g transform="matrix(.125 0 0 .125 0 -32.891665)"><path d="m2.4287318 271.26587h29.0092052v21.83486h-29.0092052z" fill="#a4a4a4" filter="url(#c)" transform="matrix(-1.09448 0 0 -1.09448 35.466532 588.91063)"/><path d="m1.8599554 271.26588h30.1467556v21.83486h-30.1467556z" fill="#949494" filter="url(#b)" transform="matrix(-1.0531812 0 0 -1.0531812 34.767212 577.25679)"/><path d="m1.7325692 271.26588h30.4015288v21.83486h-30.4015288z" fill="#313131" filter="url(#d)" transform="matrix(-1.0080161 0 0 -1.0080161 34.002412 564.51196)"/><path d="m31.750012 290.64996h-29.63334v-21.16664h29.63334z" fill="#f8f8f8" opacity=".99"/><path d="m28.575012 287.47496h-23.28334v-14.81666h23.28334z" fill="url(#a)" opacity=".99"/><g fill="#cacaca"><path d="m29.633342 288.5333h-1.05833v-16.93333h1.05833z"/><path d="m5.291682 288.5333h-1.05834v-16.93333h1.05834z"/><path d="m28.575002 287.47498v1.05833h-23.28333v-1.05833z"/><path d="m28.575002 271.59995v1.05833h-23.28333v-1.05833z"/><path d="m28.574996 276.89166v1.05833h-23.2833295v-1.05833z"/></g></g></svg>

<?xml version="1.0" encoding="UTF-8" standalone="no"?>
<svg
   xmlns:dc="http://purl.org/dc/elements/1.1/"
   xmlns:cc="http://creativecommons.org/ns#"
   xmlns:rdf="http://www.w3.org/1999/02/22-rdf-syntax-ns#"
   xmlns:svg="http://www.w3.org/2000/svg"
   xmlns="http://www.w3.org/2000/svg"
   xmlns:sodipodi="http://sodipodi.sourceforge.net/DTD/sodipodi-0.dtd"
   xmlns:inkscape="http://www.inkscape.org/namespaces/inkscape"
   height="16"
   viewBox="0 0 4.2333333 4.2333335"
   width="16"
   version="1.1"
   id="svg52"
   sodipodi:docname="sc_normalmultipanegui.svg"
   inkscape:version="0.92.3 (2405546, 2018-03-11)"
   inkscape:export-filename="/home/rizmut/Dokumen/Rizmut/Github/libreoffice-style-karasa-jaga/build/next/cmd/sc_normalmultipanegui.png"
   inkscape:export-xdpi="96"
   inkscape:export-ydpi="96">
  <metadata
     id="metadata58">
    <rdf:RDF>
      <cc:Work
         rdf:about="">
        <dc:format>image/svg+xml</dc:format>
        <dc:type
           rdf:resource="http://purl.org/dc/dcmitype/StillImage" />
        <dc:title></dc:title>
      </cc:Work>
    </rdf:RDF>
  </metadata>
  <defs
     id="defs56" />
  <sodipodi:namedview
     pagecolor="#ffffff"
     bordercolor="#666666"
     borderopacity="1"
     objecttolerance="10"
     gridtolerance="10"
     guidetolerance="10"
     inkscape:pageopacity="0"
     inkscape:pageshadow="2"
     inkscape:window-width="1366"
     inkscape:window-height="714"
     id="namedview54"
     showgrid="true"
     inkscape:zoom="20.85965"
     inkscape:cx="13.535653"
     inkscape:cy="8.0595715"
     inkscape:window-x="0"
     inkscape:window-y="28"
     inkscape:window-maximized="1"
     inkscape:current-layer="svg52">
    <inkscape:grid
       type="xygrid"
       id="grid887" />
  </sodipodi:namedview>
  <linearGradient
     id="a"
     gradientTransform="matrix(-0.84615404,0,0,-0.80489557,31.261552,507.595)"
     gradientUnits="userSpaceOnUse"
     x1="0"
     x2="31.942419"
     y1="294.88333"
     y2="274.79138">
    <stop
       offset="0"
       stop-color="#cccdcf"
       id="stop2" />
    <stop
       offset=".11366145"
       stop-color="#e0e0e1"
       id="stop4" />
    <stop
       offset=".20296694"
       stop-color="#f2f2f2"
       id="stop6" />
    <stop
       offset=".21468808"
       stop-color="#fafafa"
       id="stop8" />
    <stop
       offset=".21468808"
       stop-color="#fff"
       id="stop10" />
    <stop
       offset=".5313"
       stop-color="#fafafa"
       id="stop12" />
    <stop
       offset=".8449"
       stop-color="#ebecec"
       id="stop14" />
    <stop
       offset="1"
       stop-color="#e1e2e3"
       id="stop16" />
  </linearGradient>
  <filter
     id="b"
     height="1.0264"
     width="1.022"
     x="-0.011"
     y="-0.0132"
     style="color-interpolation-filters:sRGB">
    <feGaussianBlur
       stdDeviation=".1200918"
       id="feGaussianBlur19" />
  </filter>
  <filter
     id="c"
     height="1.132"
     width="1.11"
     x="-0.055"
     y="-0.066"
     style="color-interpolation-filters:sRGB">
    <feGaussianBlur
       stdDeviation=".600459"
       id="feGaussianBlur22" />
  </filter>
  <filter
     id="d"
     height="1.0528001"
     width="1.044"
     x="-0.022"
     y="-0.0264"
     style="color-interpolation-filters:sRGB">
    <feGaussianBlur
       stdDeviation=".2401836"
       id="feGaussianBlur25" />
  </filter>
  <g
     transform="matrix(0.125,0,0,0.125,-2.9116651e-7,-32.891665)"
     id="g50">
    <path
       d="M 2.4287318,271.26587 H 31.437937 v 21.83486 H 2.4287318 Z"
       transform="matrix(-1.09448,0,0,-1.09448,35.466532,588.91063)"
       id="path28"
       inkscape:connector-curvature="0"
       style="fill:#a4a4a4;filter:url(#c)" />
    <path
       d="M 1.8599554,271.26588 H 32.006711 v 21.83486 H 1.8599554 Z"
       transform="matrix(-1.0531812,0,0,-1.0531812,34.767212,577.25679)"
       id="path30"
       inkscape:connector-curvature="0"
       style="fill:#949494;filter:url(#b)" />
    <path
       d="M 1.7325692,271.26588 H 32.134098 v 21.83486 H 1.7325692 Z"
       transform="matrix(-1.0080161,0,0,-1.0080161,34.002412,564.51196)"
       id="path32"
       inkscape:connector-curvature="0"
       style="fill:#313131;filter:url(#d)" />
    <path
       d="M 31.750012,290.64996 H 2.116672 v -21.16664 h 29.63334 z"
       id="path34"
       inkscape:connector-curvature="0"
       style="opacity:0.98999999;fill:#f8f8f8" />
    <path
       d="M 28.575012,287.47496 H 5.291672 V 272.6583 h 23.28334 z"
       id="path36"
       style="opacity:0.98999999;fill:url(#a)"
       inkscape:connector-curvature="0" />
    <g
       id="g48"
       style="fill:#cacaca">
      <path
         d="m 29.633342,288.5333 h -1.05833 v -16.93333 h 1.05833 z"
         id="path38"
         inkscape:connector-curvature="0" />
      <path
         d="m 5.291682,288.5333 h -1.05834 v -16.93333 h 1.05834 z"
         id="path40"
         inkscape:connector-curvature="0" />
      <path
         d="m 28.575002,287.47498 v 1.05833 H 5.291672 v -1.05833 z"
         id="path42"
         inkscape:connector-curvature="0" />
      <path
         d="m 28.575002,271.59995 v 1.05833 H 5.291672 v -1.05833 z"
         id="path44"
         inkscape:connector-curvature="0" />
      <path
         d="m 28.574996,276.89166 v 1.05833 H 5.2916665 v -1.05833 z"
         id="path46"
         inkscape:connector-curvature="0" />
    </g>
  </g>
</svg>
